svgs/solid/face-worried.svg

<svg xmlns="http://www.w3.org/2000/svg" viewBox="0 0 512 512"><!--! Font Awesome Pro 6.2.0 by @fontawesome - https://fontawesome.com License - https://fontawesome.com/license (Commercial License) Copyright 2022 Fonticons, Inc. --><path d="M512 256c0 141.4-114.6 256-256 256S0 397.4 0 256S114.6 0 256 0S512 114.6 512 256zM161.3 398.1c-5.4 12.3 8.7 21.6 21.1 16.4c22.4-9.5 47.4-14.8 73.7-14.8s51.3 5.3 73.7 14.8c12.4 5.2 26.5-4.1 21.1-16.4c-16-36.6-52.4-62.1-94.8-62.1s-78.8 25.6-94.8 62.1zM176.4 304c17.7 0 32-14.3 32-32s-14.3-32-32-32s-32 14.3-32 32s14.3 32 32 32zm192-32c0-17.7-14.3-32-32-32s-32 14.3-32 32s14.3 32 32 32s32-14.3 32-32zM320 128c-8.8 0-16 7.2-16 16s7.2 16 16 16c33 0 60.1 18.7 68.7 27.3c6.2 6.2 16.4 6.2 22.6 0s6.2-16.4 0-22.6C398.6 152 363.8 128 320 128zM123.3 187.3C131.9 178.7 159 160 192 160c8.8 0 16-7.2 16-16s-7.2-16-16-16c-43.8 0-78.6 24-91.3 36.7c-6.2 6.2-6.2 16.4 0 22.6s16.4 6.2 22.6 0z"/></svg>

<svg xmlns="http://www.w3.org/2000/svg" viewBox="0 0 512 512"><!--! Font Awesome Pro 6.1.2 by @fontawesome - https://fontawesome.com License - https://fontawesome.com/license (Commercial License) Copyright 2022 Fonticons, Inc. --><path d="M0 256C0 114.6 114.6 0 256 0C397.4 0 512 114.6 512 256C512 397.4 397.4 512 256 512C114.6 512 0 397.4 0 256zM256.1 399.7C282.4 399.7 307.3 405 329.7 414.5C342.1 419.7 356.2 410.4 350.8 398.1C334.9 361.5 298.4 335.1 256.1 335.1C213.7 335.1 177.2 361.5 161.3 398.1C155.9 410.4 170 419.7 182.4 414.5C204.8 405 229.7 399.7 256.1 399.7V399.7zM176.4 240C158.7 240 144.4 254.3 144.4 272C144.4 289.7 158.7 304 176.4 304C194 304 208.4 289.7 208.4 272C208.4 254.3 194 240 176.4 240zM336.4 304C354 304 368.4 289.7 368.4 272C368.4 254.3 354 240 336.4 240C318.7 240 304.4 254.3 304.4 272C304.4 289.7 318.7 304 336.4 304zM208 144C208 135.2 200.8 128 192 128C186.2 128 180.4 128.4 174.8 129.1C146.6 132.9 121.1 145.6 101.1 164.3C94.62 170.3 94.28 180.5 100.3 186.9C106.3 193.4 116.5 193.7 122.9 187.7C138.4 173.2 157.8 163.7 178.1 160.9C183.2 160.3 187.6 160 192 160C200.8 160 208 152.8 208 144zM389.1 187.7C395.5 193.7 405.7 193.4 411.7 186.9C417.7 180.5 417.4 170.3 410.9 164.3C390.9 145.6 365.4 132.9 337.2 129.1C331.6 128.4 325.8 128 320 128C311.2 128 304 135.2 304 144C304 152.8 311.2 160 320 160C324.4 160 328.8 160.3 333 160.9C354.2 163.7 373.6 173.2 389.1 187.7z"/></svg>
